assets/icons/devices/apple/airpods.svg

<svg xmlns="http://www.w3.org/2000/svg" xml:space="preserve" style="enable-background:new 0 0 128 128" viewBox="0 0 128 128">
  <circle cx="64" cy="64" r="64" style="fill:#656365"/>
  <path fill="none" d="M31.2 31.8h65.6v64.4H31.2z" style="fill-opacity:0"/>
  <path d="M45.7 58.6c7.7.1 14.4-6 14.3-13.4-.1-7.3-6.5-13.3-14.3-13.3-7.1 0-11.5 4.4-13.5 7.5-.7 1.1-1 2.2-1 3.5v4.9c0 1.3.3 2.4 1 3.5 2 2.9 6.4 7.2 13.5 7.3zm-8.5-8.2c-.9 0-1.6-.7-1.6-1.6v-7.3c0-.9.7-1.6 1.6-1.6.9 0 1.6.7 1.6 1.6v7.3c0 .9-.7 1.6-1.6 1.6zm10.2 34.8h9.3V58.1c-2.6 2-5.8 3.3-9.3 3.6v23.5zm3.2 10.9h2.8c2 0 3.3-1 3.3-2.9v-4.7h-9.3v4.7c0 1.9 1.3 2.9 3.2 2.9zm31.7-37.5c7.1-.1 11.6-4.4 13.5-7.5.7-1.1 1-2.2 1-3.5v-4.9c0-1.3-.3-2.4-1-3.5-2-3.1-6.4-7.5-13.5-7.5-7.7 0-14.2 6-14.3 13.3-.1 7.6 6.6 13.6 14.3 13.6zm8.5-8.2c-.9 0-1.6-.7-1.6-1.6v-7.3c0-.9.7-1.6 1.6-1.6.9 0 1.6.7 1.6 1.6v7.3c0 .9-.7 1.6-1.6 1.6zM80.6 85.2V61.7c-3.5-.3-6.7-1.6-9.3-3.6v27.1h9.3zm-3.2 10.9c1.9 0 3.2-1 3.2-2.9v-4.7h-9.3v4.7c0 1.9 1.3 2.9 3.3 2.9h2.8z" style="fill:#fff;fill-opacity:.85"/>
</svg>

<?xml version="1.0" encoding="utf-8"?>
<!-- Generator: Adobe Illustrator 26.0.2, SVG Export Plug-In . SVG Version: 6.00 Build 0)  -->
<svg version="1.1" id="Layer_1" xmlns="http://www.w3.org/2000/svg" xmlns:xlink="http://www.w3.org/1999/xlink" x="0px" y="0px"
	 viewBox="0 0 128 128" style="enable-background:new 0 0 128 128;" xml:space="preserve">
<style type="text/css">
	.st0{fill:#656365;}
	.st1{fill-opacity:0;}
	.st2{fill:#FFFFFF;fill-opacity:0.85;}
</style>
<circle class="st0" cx="64" cy="64" r="64"/>
<g>
	<rect x="31.2" y="31.8" class="st1" width="65.6" height="64.4"/>
	<path class="st2" d="M45.7,58.6c7.7,0.1,14.4-6,14.3-13.4c-0.1-7.3-6.5-13.3-14.3-13.3c-7.1,0-11.5,4.4-13.5,7.5
		c-0.7,1.1-1,2.2-1,3.5v4.9c0,1.3,0.3,2.4,1,3.5C34.2,54.2,38.6,58.5,45.7,58.6z M37.2,50.4c-0.9,0-1.6-0.7-1.6-1.6v-7.3
		c0-0.9,0.7-1.6,1.6-1.6c0.9,0,1.6,0.7,1.6,1.6v7.3C38.8,49.7,38.1,50.4,37.2,50.4z M47.4,85.2h9.3V58.1c-2.6,2-5.8,3.3-9.3,3.6
		V85.2z M50.6,96.1h2.8c2,0,3.3-1,3.3-2.9v-4.7h-9.3v4.7C47.4,95.1,48.7,96.1,50.6,96.1z M82.3,58.6c7.1-0.1,11.6-4.4,13.5-7.5
		c0.7-1.1,1-2.2,1-3.5v-4.9c0-1.3-0.3-2.4-1-3.5c-2-3.1-6.4-7.5-13.5-7.5c-7.7,0-14.2,6-14.3,13.3C67.9,52.6,74.6,58.6,82.3,58.6z
		 M90.8,50.4c-0.9,0-1.6-0.7-1.6-1.6v-7.3c0-0.9,0.7-1.6,1.6-1.6c0.9,0,1.6,0.7,1.6,1.6v7.3C92.4,49.7,91.7,50.4,90.8,50.4z
		 M80.6,85.2V61.7c-3.5-0.3-6.7-1.6-9.3-3.6v27.1H80.6z M77.4,96.1c1.9,0,3.2-1,3.2-2.9v-4.7h-9.3v4.7c0,1.9,1.3,2.9,3.3,2.9H77.4z"
		/>
</g>
</svg>
